icons/board-cross.svg

<svg xmlns="http://www.w3.org/2000/svg" viewBox="0 0 24 24" fill="currentColor">
  <path d="M7 4.25c-1.78579 0-3.25 1.46421-3.25 3.25v6c0 1.7858 1.46421 3.25 3.25 3.25h1.48711c.00902-.0002.01804-.0002.02707 0h6.97152c.0091-.0002.0181-.0002.0271 0H17c1.7858 0 3.25-1.4642 3.25-3.25v-6c0-.41421.3358-.75.75-.75s.75.33579.75.75v6c0 2.6142-2.1358 4.75-4.75 4.75h-.0986l1.2226 1.8339c.2298.3447.1366.8103-.208 1.0401-.3447.2298-.8103.1366-1.0401-.208l-1.7773-2.666H8.90132L7.124 20.916c-.22977.3446-.69542.4378-1.04007.208-.34464-.2298-.43777-.6954-.20801-1.0401L7.09854 18.25H7c-2.61421 0-4.75-2.1358-4.75-4.75v-6c0-2.61421 2.13579-4.75 4.75-4.75.41421 0 .75.33579.75.75s-.33579.75-.75.75Zm8.6303 1.41962c.2929.29289.2929.76777 0 1.06066l-1.1697 1.16967 1.1697 1.16966c.2929.2929.2929.76777 0 1.06069-.2929.2929-.7678.2929-1.0607 0l-1.1697-1.16969-1.1696 1.16969c-.2929.2929-.7678.2929-1.0607 0-.2929-.29292-.2929-.76779 0-1.06069l1.1697-1.16966-1.1697-1.16967c-.2929-.29289-.2929-.76777 0-1.06066s.7678-.29289 1.0607 0l1.1696 1.16967 1.1697-1.16967c.2929-.29289.7678-.29289 1.0607 0Z"/>
</svg>

<svg width="24" height="24" viewBox="0 0 24 24" fill="none" xmlns="http://www.w3.org/2000/svg">
<path fill-rule="evenodd" clip-rule="evenodd" d="M7 4.25C5.21421 4.25 3.75 5.71421 3.75 7.5V13.5C3.75 15.2858 5.21421 16.75 7 16.75H8.48711C8.49613 16.7498 8.50515 16.7498 8.51418 16.75H15.4857C15.4948 16.7498 15.5038 16.7498 15.5128 16.75H17C18.7858 16.75 20.25 15.2858 20.25 13.5V7.5C20.25 7.08579 20.5858 6.75 21 6.75C21.4142 6.75 21.75 7.08579 21.75 7.5V13.5C21.75 16.1142 19.6142 18.25 17 18.25H16.9014L18.124 20.0839C18.3538 20.4286 18.2606 20.8942 17.916 21.124C17.5713 21.3538 17.1057 21.2606 16.8759 20.916L15.0986 18.25H8.90132L7.124 20.916C6.89423 21.2606 6.42858 21.3538 6.08393 21.124C5.73929 20.8942 5.64616 20.4286 5.87592 20.0839L7.09854 18.25H7C4.38579 18.25 2.25 16.1142 2.25 13.5V7.5C2.25 4.88579 4.38579 2.75 7 2.75C7.41421 2.75 7.75 3.08579 7.75 3.5C7.75 3.91421 7.41421 4.25 7 4.25ZM15.6303 5.66962C15.9232 5.96251 15.9232 6.43739 15.6303 6.73028L14.4606 7.89995L15.6303 9.06961C15.9232 9.36251 15.9232 9.83738 15.6303 10.1303C15.3374 10.4232 14.8625 10.4232 14.5696 10.1303L13.3999 8.96061L12.2303 10.1303C11.9374 10.4232 11.4625 10.4232 11.1696 10.1303C10.8767 9.83738 10.8767 9.36251 11.1696 9.06961L12.3393 7.89995L11.1696 6.73028C10.8767 6.43739 10.8767 5.96251 11.1696 5.66962C11.4625 5.37673 11.9374 5.37673 12.2303 5.66962L13.3999 6.83929L14.5696 5.66962C14.8625 5.37673 15.3374 5.37673 15.6303 5.66962Z" fill="black"/>
</svg>
